X: 19
T: Mountain Road, The
C: Michael Gorman
Z: Helen Snibson
S: https://thesession.org/tunes/68#setting50647
R: reel
M: 4/4
L: 1/8
K: Dmaj
DE|"D"F2AF BFAF|"D/A"F2AF "D"EFDE|"D"F2AF BFAF|"G" GE "D/F#" FD "Em" ED"A"B,D|
"D"F2 AF "G"BFAF|"D/F#"F2AF EFDE|"G"FA (3AAA "A"BAFA|"G/B"ABde "A"fedc||
"D"d2cdB ADFA|"D/A" d2de fgfe| "D"d2dB ADFA|"G"GE "D/F#"(3GFD "Em" ED"A"B,C|
"D"d2dB ADFA|"D"d2de fgfe|"G"dcdB "D"ADFA|"Bm7"GEFD "A"EDB,D||

